X:199
T:Lucy's Tune
R:reel
D:Davy Spillane: Shadow Hunter
Z:id:hn-reel-199
M:C|
K:Em
BAGF GEEF|GFGA ABAd|dBAG FDDE|EDFA GBAc|
BAGF GFEF|GFGA B3e|f2eg fded|dBAG FDD2:|
|:fgfe d2 (3efg|fede fgaf|gfeg fded|fdAG FDD2|
fgfe d2 (3efg|fede fgaf|gfeg fded|dBAG FDD2:|

